X: 3271
T: Lady Mary Hay's Scotch Measure
C: by Nath. Gow
%R: scotch measure, reel, march
B: Niel Gow & Sons "A Third Collection of Strathspey Reels, etc." v.3 p.27 #1
Z: 2022 John Chambers <jc:trillian.mit.edu>
M: C
L: 1/8
K: Dm
% - - - - - - - - - -
% Voice 1 not reformatted. It's compact and illustrates some of the Gows' unusual
% formatting, such as mid-bar staff breaks and the 2nd ending's unusual beaming.
V: 1 staves=2
TF>E |\
D2D2 A3F | D2A2 defg | agfd ecd=B | c2C2- C2TF>E ||\
D2D2 A3F | D2A2 defg | agfd eaA^c | d2D2- D2 :|
Tf>e |\
d2d2 Td3A | (d^c)de  fefd | efga gfed | e2c2- c2Tf>e ||\
d2d2 Td3A | (Td^c)de fefd | efgb afge | f2d2- d2Tf>e ||\
d2D2 Td3e |
(fef).g agfd | efge c'gaf | e2c2- c2 ag ||\
fgag Tf>efd | efgf {f}ede^c | dBAG FdE^c | d2D2- D2 |: FE |\
(DF)(AF) (Dd)(^cd) | (Dd)(Ed)
(Fd)(DA) | (Tdef).d ecd=B | c2C2- C2FE || .D(d^cd) (Dd)(Ed) |\
(Fd)(Ed) (Fd)(DA) | (de)(fd) (ea).A.^c | d2D2- D2 :: ag |\
f>ede fgag | fd^cd (Dd)(Fd) | (Ad)fd Tf>gaf |
(efg)d c2ag |[1 Tf>ede fgag | f(d^cd) (Ad)(fd) | .e(gab) (ag).f.e | f2d2 d2 :|\
[2 fd bage ag | fd gfed ^cA | dBAG (Fd)(E^c) | d2D2- D2 |]
% - - - - - - - - - -
% Voice 2 preserves the staff layout in the book.
V: 2 clef=bass middle=d
z2 | D2d2 d2d2 | d2d2 d2d2 | d2d2 e2g2 | d2G2 C2z2 || D2d2 d2d2 | d2d2 d3e | f2g2 a2A2 | d2A2 D2 :|
z2 | d2d'2 d2d'2 | d2d'2 d2d'2 | z2c2 e2g2 | c'2g2 e2c2 || d2d'2 d2d'2 | d2d'2 d2d'2 | g2g2 a2A2 | d2A2 D4 || D2d2 d2d2 |
d2d2 d2d2 | c2c2 e2f2 | c2c'2 c2z2 || d2d2 d2d2 | A2a2 A2a2 | d2g2 a2A2 | d2A2 D2 |: z2 | d2d'2 d2d'2 | d2c2
d2f2 | d4 e2g2 | c'2g2 c2z2 || d2D2 d2A2 | d2^c2 d2f2 | e2g2 a2A2 | d2A2 D2 :: z2 | d2d'2 d2d'2 | d2d'2 d2d'2 | f2d2 d'2d2 |
c2c'2 c2z2 |[1 d2d'2 d2d'2 | d2d'2 d2d'2 | g4 a2A2 | d2A2 D2 :|[2 d2z2 g2z2 | d2z2 a2A2 |f2g2 a2A2 | d2A2 D2 |]
